assets/features/global-acquiring/subscribe-anim-na-1.svg

<svg width="72" height="72" viewBox="0 0 72 72" fill="none" xmlns="http://www.w3.org/2000/svg">
<g clip-path="url(#clip0_1347_4133)">
<path d="M52 1H20C9.50659 1 1 9.50659 1 20V52C1 62.4934 9.50659 71 20 71H52C62.4934 71 71 62.4934 71 52V20C71 9.50659 62.4934 1 52 1Z" stroke="#9095A1" stroke-width="2"/>
<path d="M40.1768 50.1973C39.6863 51.7653 38.0795 53 36 53C33.9335 53 32.3176 51.7679 31.8242 50.1973H40.1768ZM36 19C37.5123 19 38.5557 20.0846 38.5557 21.2002L38.5479 21.373C38.5427 21.4302 38.5348 21.4874 38.5244 21.5439L38.3623 22.4268L39.2227 22.6826C43.9883 24.0981 47.4442 28.4542 47.4443 33.5947V38.0439V38.0674C47.4444 38.0809 47.4451 38.1003 47.4453 38.125C47.4458 38.1748 47.4464 38.2465 47.4482 38.3369C47.4519 38.5182 47.4593 38.7759 47.4736 39.084C47.5022 39.6973 47.5589 40.5248 47.6758 41.3604C47.7905 42.1803 47.9718 43.0774 48.2725 43.7939C48.4223 44.1511 48.6277 44.5266 48.9209 44.8262C49.2292 45.141 49.6676 45.4004 50.2227 45.4004C50.7564 45.4005 51 45.7614 51 46C50.9998 46.2366 50.7563 46.5995 50.2227 46.5996H21.7773C21.2437 46.5995 21.0002 46.2389 21 46C21 45.7792 21.2259 45.4005 21.8232 45.4004H21.8398L21.8555 45.3994C22.4097 45.3817 22.836 45.105 23.1289 44.7891C23.41 44.4859 23.6071 44.1093 23.752 43.751C24.0426 43.0317 24.2184 42.1349 24.3301 41.3135C24.4437 40.477 24.4995 39.6498 24.5273 39.0371C24.5413 38.7296 24.5482 38.4728 24.5518 38.292C24.5535 38.2016 24.5542 38.1297 24.5547 38.0801C24.5549 38.0554 24.5556 38.0359 24.5557 38.0225V33.5938C24.5559 28.4836 28.2514 24.1071 32.792 22.6826L33.6367 22.418L33.4766 21.5469C33.4557 21.434 33.4444 21.3183 33.4443 21.2002C33.4443 20.0827 34.49 19 36 19Z" stroke="#9095A1" stroke-width="2"/>
</g>
<defs>
<clipPath id="clip0_1347_4133">
<rect width="72" height="72" fill="white"/>
</clipPath>
</defs>
</svg>

<svg xmlns="http://www.w3.org/2000/svg" width="72" height="72" fill="none" viewBox="0 0 72 72"><g stroke="#9095a1" stroke-width="2" clip-path="url(#a)"><path d="M52 1H20C9.507 1 1 9.507 1 20v32c0 10.493 8.507 19 19 19h32c10.493 0 19-8.507 19-19V20C71 9.507 62.493 1 52 1Z"/><path d="M40.177 50.197C39.687 51.765 38.08 53 36 53c-2.066 0-3.682-1.232-4.176-2.803zM36 19c1.512 0 2.556 1.085 2.556 2.2l-.008.173a2 2 0 0 1-.024.17l-.162.884.86.256c4.766 1.415 8.222 5.771 8.222 10.912v4.472l.001.058.003.212c.004.181.011.439.026.747.028.613.085 1.44.202 2.276.114.82.296 1.717.596 2.434.15.357.356.733.649 1.032.308.315.747.574 1.302.574.533 0 .777.361.777.6 0 .237-.244.6-.777.6H21.777c-.533 0-.777-.361-.777-.6 0-.22.226-.6.823-.6h.032c.555-.018.981-.295 1.274-.61.281-.304.478-.68.623-1.039.29-.72.466-1.616.578-2.437.114-.837.17-1.664.197-2.277.014-.307.021-.564.025-.745l.003-.212v-4.487c0-5.11 3.696-9.486 8.237-10.91l.845-.265-.16-.871a2 2 0 0 1-.033-.347c0-1.117 1.046-2.2 2.556-2.2Z"/></g><defs><clipPath id="a"><path fill="#fff" d="M0 0h72v72H0z"/></clipPath></defs></svg>
